assets/images/shortcut/ios.svg

<svg width="32" height="32" viewBox="0 0 32 32" fill="none" xmlns="http://www.w3.org/2000/svg">
  <path fill-rule="evenodd" clip-rule="evenodd" d="M7.68286 0.484985H24.3179C28.2929 0.484985 31.5159 3.70799 31.5159 7.68299V24.318C31.5159 28.293 28.2929 31.516 24.3179 31.516H7.68286C3.70786 31.516 0.484863 28.293 0.484863 24.318V7.68299C0.484863 3.70699 3.70686 0.484985 7.68286 0.484985Z" fill="url(#paint0_linear)"/>
  <path d="M24.317 32H7.683C3.446 32 0 28.554 0 24.317V7.683C0 3.446 3.446 0 7.683 0H24.317C28.554 0 32 3.446 32 7.683V24.317C32 28.554 28.554 32 24.317 32ZM7.683 0.97C3.981 0.97 0.97 3.981 0.97 7.683V24.317C0.97 28.019 3.981 31.03 7.683 31.03H24.317C28.019 31.03 31.03 28.019 31.03 24.317V7.683C31.03 3.981 28.019 0.97 24.317 0.97H7.683Z" fill="#D4D4D4"/>
  <path fill-rule="evenodd" clip-rule="evenodd" d="M5.58397 22.324H4.85397V12.57H5.58397V22.324ZM5.20897 10.18C4.90097 10.18 4.64697 9.93598 4.64697 9.62798C4.64697 9.31098 4.89997 9.06598 5.20897 9.06598C5.52597 9.06598 5.77797 9.30998 5.77797 9.62798C5.77797 9.93598 5.52597 10.18 5.20897 10.18Z" fill="#2B2B2B"/>
  <path fill-rule="evenodd" clip-rule="evenodd" d="M12.6741 22.515C9.1051 22.515 6.8501 19.916 6.8501 15.785C6.8501 11.674 9.1151 9.065 12.6741 9.065C16.2331 9.065 18.4961 11.674 18.4961 15.785C18.4961 19.916 16.2421 22.515 12.6741 22.515ZM12.6741 9.736C9.5671 9.736 7.5841 12.082 7.5841 15.784C7.5841 19.489 9.5761 21.844 12.6741 21.844C15.7811 21.844 17.7641 19.489 17.7641 15.784C17.7641 12.081 15.7801 9.736 12.6741 9.736Z" fill="#2B2B2B"/>
  <path fill-rule="evenodd" clip-rule="evenodd" d="M23.6939 22.515C21.0149 22.515 19.0939 21.002 18.9849 18.838H19.6999C19.8089 20.612 21.4749 21.854 23.7479 21.854C25.9659 21.854 27.5139 20.594 27.5139 18.893C27.5139 17.524 26.5909 16.737 24.3999 16.185L22.8519 15.804C20.4349 15.187 19.3379 14.209 19.3379 12.571C19.3379 10.533 21.2409 9.06598 23.6229 9.06598C26.0849 9.06598 27.9239 10.515 28.0059 12.435H27.2899C27.1899 10.869 25.6599 9.72698 23.6039 9.72698C21.6379 9.72698 20.0709 10.905 20.0709 12.553C20.0709 13.858 21.0309 14.609 23.1309 15.134L24.5889 15.505C27.1149 16.13 28.2479 17.1 28.2479 18.838C28.2479 21.001 26.4289 22.515 23.6939 22.515Z" fill="#2B2B2B"/>
  <defs>
    <linearGradient id="paint0_linear" x1="16.0067" y1="16.0068" x2="16.0067" y2="31.5074" gradientUnits="userSpaceOnUse">
      <stop stop-color="white"/>
      <stop offset="1" stop-color="#E8E5E5"/>
    </linearGradient>
  </defs>
</svg>

<svg width="32" height="32" fill="none" xmlns="http://www.w3.org/2000/svg"><path fill-rule="evenodd" clip-rule="evenodd" d="M7.683.485h16.635a7.198 7.198 0 017.198 7.198v16.635a7.198 7.198 0 01-7.198 7.198H7.683a7.198 7.198 0 01-7.198-7.198V7.683A7.197 7.197 0 017.683.485z" fill="url(#paint0_linear)"/><path d="M24.317 32H7.683C3.446 32 0 28.554 0 24.317V7.683C0 3.446 3.446 0 7.683 0h16.634C28.554 0 32 3.446 32 7.683v16.634C32 28.554 28.554 32 24.317 32zM7.683.97A6.72 6.72 0 00.97 7.683v16.634a6.72 6.72 0 006.713 6.713h16.634a6.72 6.72 0 006.713-6.713V7.683A6.72 6.72 0 0024.317.97H7.683z" fill="#D4D4D4"/><path fill-rule="evenodd" clip-rule="evenodd" d="M5.584 22.324h-.73V12.57h.73v9.754zM5.209 10.18a.557.557 0 110-1.114.557.557 0 110 1.114zM12.674 22.515c-3.569 0-5.824-2.599-5.824-6.73 0-4.111 2.265-6.72 5.824-6.72 3.56 0 5.822 2.609 5.822 6.72 0 4.131-2.254 6.73-5.822 6.73zm0-12.779c-3.107 0-5.09 2.346-5.09 6.048 0 3.705 1.992 6.06 5.09 6.06 3.107 0 5.09-2.355 5.09-6.06 0-3.703-1.984-6.048-5.09-6.048zM23.694 22.515c-2.68 0-4.6-1.513-4.71-3.677h.716c.109 1.774 1.775 3.016 4.048 3.016 2.218 0 3.766-1.26 3.766-2.961 0-1.369-.923-2.156-3.114-2.708l-1.548-.381c-2.417-.617-3.514-1.595-3.514-3.233 0-2.038 1.903-3.505 4.285-3.505 2.462 0 4.3 1.449 4.383 3.369h-.716c-.1-1.566-1.63-2.708-3.686-2.708-1.966 0-3.533 1.178-3.533 2.826 0 1.305.96 2.056 3.06 2.581l1.458.371c2.526.625 3.659 1.595 3.659 3.333 0 2.163-1.82 3.677-4.554 3.677z" fill="#2B2B2B"/><defs><linearGradient id="paint0_linear" x1="16.007" y1="16.007" x2="16.007" y2="31.507" gradientUnits="userSpaceOnUse"><stop stop-color="#fff"/><stop offset="1" stop-color="#E8E5E5"/></linearGradient></defs></svg>
